X:14
T: Where Did You Sleep Last Night
M:3/4
L:1/4
K:E clef=treble
=G| "E" E2 E | B2 B | "A"A2 E | "G"=G2 G/A/ | "B7" B2 B/A/ | =G2 G | "E"E2 z | 
z2 =G/G/ | "E" E2 E/E/ | B2 A/B/ | "A" A3/ A/ A/B/ | "G" =G2 G/A/ | "B7" B2- B/=G/ | E =G G | "E" E2 z |]
W:
W:My girl, my girl, don't lie to me
W:Tell me where did you sleep last night
W:In the pines, in the pines
W:Where the sun don't ever shine
W:I would shiver the whole night through
W:
W:My girl, my girl, where will you go
W:I'm going where the cold wind blows
W:In the pines in the pines
W:Where the sun don't ever shine
W:I would shiver the whole night through
W:
W:Her husband, was a hard working man
W:Just about a mile from here
W:His head was found in a driving wheel
W:But his body never was found
W:
W:My girl, my girl, don't lie to me
W:Tell me where did you sleep last night
W:In the pines, in the pines
W:Where the sun don't ever shine
W:I would shiver the whole night through
W:
W:My girl, my girl, where will you go
W:I'm going where the cold wind blows
W:In the pines in the pines
W:Where the sun don't ever shine
W:I would shiver the whole night through

